ui/StatusQ/src/assets/img/icons/sandwatch.svg

<svg fill="none" height="16" viewBox="0 0 16 16" width="16" xmlns="http://www.w3.org/2000/svg"><path clip-rule="evenodd" d="m1.5 1.83398c0-.27614.22386-.5.5-.5h12c.2761 0 .5.22386.5.5 0 .27615-.2239.5-.5.5h-.758c-.1697 0-.3116.12773-.3363.29554-.3197 2.16436-1.425 3.95271-2.9035 4.81513-.20004.11668-.33553.32443-.33553.556 0 .23158.13549.43932.33553.556 1.4785.86242 2.5838 2.65075 2.9035 4.81515.0247.1678.1666.2955.3363.2955h.758c.2761 0 .5.2239.5.5 0 .2762-.2239.5-.5.5h-11-1c-.27614 0-.5-.2238-.5-.5 0-.2761.22386-.5.5-.5h.75803c.16964 0 .31153-.1277.33632-.2955.31969-2.1644 1.425-3.95273 2.90346-4.81515.20003-.11668.33552-.32442.33552-.556 0-.23157-.13549-.43932-.33552-.556-1.47846-.86242-2.58377-2.65077-2.90346-4.81513-.02479-.16781-.16668-.29554-.33632-.29554h-.75803c-.27614 0-.5-.22385-.5-.5zm10.3805 11.45932c.0352.1976-.1206.374-.3214.374h-7.1182c-.20076 0-.35657-.1764-.32138-.374.32315-1.8151 1.2655-3.2215 2.38215-3.87286.46462-.27102.83166-.7858.83166-1.41979s-.36704-1.14876-.83166-1.41978c-1.11665-.65137-2.05899-2.05774-2.38215-3.87286-.03519-.19766.12062-.37403.32138-.37403h7.1182c.2008 0 .3566.17637.3214.37403-.3232 1.81512-1.2655 3.22149-2.38217 3.87286-.46462.27102-.83166.78579-.83166 1.41978s.36704 1.14877.83166 1.41979c1.11667.65136 2.05897 2.05776 2.38217 3.87286z" fill="#939ba1" fill-rule="evenodd"/></svg>

<svg width="16" height="16" viewBox="0 0 16 16" fill="none" xmlns="http://www.w3.org/2000/svg">
<path fill-rule="evenodd" clip-rule="evenodd" d="M1.5 1.83398C1.5 1.55784 1.72386 1.33398 2 1.33398H14C14.2761 1.33398 14.5 1.55784 14.5 1.83398C14.5 2.11013 14.2761 2.33398 14 2.33398H13.242C13.0723 2.33398 12.9304 2.46171 12.9057 2.62952C12.586 4.79388 11.4807 6.58223 10.0022 7.44465C9.80216 7.56133 9.66667 7.76908 9.66667 8.00065C9.66667 8.23223 9.80216 8.43997 10.0022 8.55665C11.4807 9.41907 12.586 11.2074 12.9057 13.3718C12.9304 13.5396 13.0723 13.6673 13.242 13.6673H14C14.2761 13.6673 14.5 13.8912 14.5 14.1673C14.5 14.4435 14.2761 14.6673 14 14.6673L3 14.6673L2 14.6673C1.72386 14.6673 1.5 14.4435 1.5 14.1673C1.5 13.8912 1.72386 13.6673 2 13.6673H2.75803C2.92767 13.6673 3.06956 13.5396 3.09435 13.3718C3.41404 11.2074 4.51935 9.41907 5.99781 8.55665C6.19784 8.43997 6.33333 8.23223 6.33333 8.00065C6.33333 7.76908 6.19784 7.56133 5.99781 7.44465C4.51935 6.58223 3.41404 4.79388 3.09435 2.62952C3.06956 2.46171 2.92767 2.33398 2.75803 2.33398H2C1.72386 2.33398 1.5 2.11013 1.5 1.83398ZM11.8805 13.2933C11.9157 13.4909 11.7599 13.6673 11.5591 13.6673H4.4409C4.24014 13.6673 4.08433 13.4909 4.11952 13.2933C4.44267 11.4782 5.38502 10.0718 6.50167 9.42044C6.96629 9.14942 7.33333 8.63464 7.33333 8.00065C7.33333 7.36666 6.96629 6.85189 6.50167 6.58087C5.38502 5.9295 4.44268 4.52313 4.11952 2.70801C4.08433 2.51035 4.24014 2.33398 4.4409 2.33398H11.5591C11.7599 2.33398 11.9157 2.51035 11.8805 2.70801C11.5573 4.52313 10.615 5.9295 9.49833 6.58087C9.03371 6.85189 8.66667 7.36666 8.66667 8.00065C8.66667 8.63464 9.03371 9.14942 9.49833 9.42044C10.615 10.0718 11.5573 11.4782 11.8805 13.2933Z" fill="#939BA1"/>
</svg>
